remix/Finance/wallet-2-fill.svg

<svg viewBox="0 0 24 24" fill="currentColor" xmlns="http://www.w3.org/2000/svg"><path d="M22.0049 7.99979H13.0049C12.4526 7.99979 12.0049 8.4475 12.0049 8.99979V14.9998C12.0049 15.5521 12.4526 15.9998 13.0049 15.9998H22.0049V19.9998C22.0049 20.5521 21.5572 20.9998 21.0049 20.9998H3.00488C2.4526 20.9998 2.00488 20.5521 2.00488 19.9998V3.99979C2.00488 3.4475 2.4526 2.99979 3.00488 2.99979H21.0049C21.5572 2.99979 22.0049 3.4475 22.0049 3.99979V7.99979ZM15.0049 10.9998H18.0049V12.9998H15.0049V10.9998Z"/></svg>

<svg viewBox="0 0 24 24" xmlns="http://www.w3.org/2000/svg"><path fill="none" d="M0 0h24v24H0Z"/><path d="M22 8h-9v0c-.56 0-1 .44-1 1v6 0c0 .55.44 1 1 1h9v4 0c0 .55-.45 1-1 1H3v0c-.56 0-1-.45-1-1V4v0c0-.56.44-1 1-1h18v0c.55 0 1 .44 1 1v4Zm-7 3h3v2h-3v-2Z"/></svg>
